X: 29712
T: Nuala Kennedy's
R: jig
M: 6/8
K: Gmajor
e|:dBG AGE|GED ~D3|DEG BGB|cBA G2 e|
dBG AGE|GED D2 E|DGB AGF|1 G2 F G2 e:|2 G2 F GBc||
~d3 gdB|cBA GBc|~d3 gdB|AFD GBc|
d2 d gdB|cBc B/c/d B|A/B/A G DGF|1 G2 F G2 B:|2 G2 F G3||

